app/dist/common/images/surteco-se.svg

<svg fill="none" height="18" viewBox="0 0 18 18" width="18" xmlns="http://www.w3.org/2000/svg"><path d="m0 0h18v18h-18z" fill="#13387f"/><path d="m11.1436 7c-.3259 0-.5617-.19576-.6526-.53176-.1987-.88646-.63915-1.16247-1.50854-1.16247-.69723 0-1.48308.45859-1.48308 1.22009 0 2.06615 4.50062 1.65452 4.50062 4.57894 0 1.8538-1.4414 2.8952-2.99038 2.8952-1.34941 0-2.68832-.8399-2.9904-2.4173-.09747-.487.18506-.916.63883-.916.32611 0 .53919.1919.63884.5762.20827.9043.85704 1.3363 1.67182 1.3363.8075 0 1.53109-.6114 1.53109-1.312 0-1.74094-4.42421-1.55062-4.42421-4.66825 0-1.69218 1.51983-2.59895 2.90687-2.59895 1.28354 0 2.54464.59073 2.80004 2.08437.0914.47662-.1913.91563-.6389.91563z" fill="#f0f3fa"/></svg>

<!-- by TradingView --><svg width="18" height="18" viewBox="0 0 18 18" fill="none" xmlns="http://www.w3.org/2000/svg">
<rect width="18" height="18" fill="#13387F"/>
<path d="M11.1436 7C10.8177 7 10.5819 6.80424 10.491 6.46824C10.2923 5.58178 9.85185 5.30577 8.98246 5.30577C8.28523 5.30577 7.49938 5.76436 7.49938 6.52586C7.49938 8.59201 12 8.18038 12 11.1048C12 12.9586 10.5586 14 9.00962 14C7.66021 14 6.3213 13.1601 6.01922 11.5827C5.92175 11.0957 6.20428 10.6667 6.65805 10.6667C6.98416 10.6667 7.19724 10.8586 7.29689 11.2429C7.50516 12.1472 8.15393 12.5792 8.96871 12.5792C9.77621 12.5792 10.4998 11.9678 10.4998 11.2672C10.4998 9.52626 6.07559 9.71658 6.07559 6.59895C6.07559 4.90677 7.59542 4 8.98246 4C10.266 4 11.5271 4.59073 11.7825 6.08437C11.8739 6.56099 11.5912 7 11.1436 7Z" fill="#F0F3FA"/>
</svg>
